src/components/content/Icon/functional/taking-action.svg

<svg width="100" height="100" viewBox="0 0 100 100" fill="none" xmlns="http://www.w3.org/2000/svg">
<path d="M51.0261 53V38.4C51.0261 37.848 50.5781 37.4 50.0261 37.4C49.4741 37.4 49.0261 37.848 49.0261 38.4V53C49.0261 53.552 49.4741 54 50.0261 54C50.5781 54 51.0261 53.552 51.0261 53Z" fill="#0B301A"/>
<path d="M67.7161 38.696L70.7601 35.986C71.1721 35.618 71.2101 34.986 70.8421 34.574C70.4741 34.162 69.8421 34.124 69.4301 34.492L66.3801 37.208C62.4401 33.18 57.0301 30.598 51.0261 30.338V25.658H53.5561C54.1081 25.658 54.5561 25.21 54.5561 24.658C54.5561 24.106 54.1081 23.658 53.5561 23.658H46.4961C45.9441 23.658 45.4961 24.106 45.4961 24.658C45.4961 25.21 45.9441 25.658 46.4961 25.658H49.0261V30.338C36.8681 30.864 27.1401 40.916 27.1401 53.202C27.1401 58.414 28.9381 63.514 32.2061 67.562C32.2885 67.6643 32.3902 67.7494 32.5055 67.8124C32.6208 67.8754 32.7474 67.915 32.878 67.9289C33.0086 67.9428 33.1407 67.9309 33.2667 67.8936C33.3927 67.8564 33.5101 67.7947 33.6121 67.712C33.7145 67.6296 33.7996 67.5279 33.8626 67.4126C33.9256 67.2973 33.9652 67.1707 33.9791 67.0401C33.993 66.9095 33.981 66.7774 33.9438 66.6514C33.9066 66.5254 33.8448 66.408 33.7621 66.306C30.7821 62.612 29.1401 57.958 29.1401 53.202C29.1401 41.686 38.5101 32.316 50.0261 32.316C61.5421 32.316 70.9121 41.686 70.9121 53.202C70.9121 64.718 61.5421 74.088 50.0261 74.088C45.0321 74.088 40.1981 72.298 36.4161 69.046C36.215 68.8732 35.9536 68.7874 35.6892 68.8073C35.4248 68.8271 35.1792 68.9511 35.0061 69.152C34.8334 69.3531 34.7476 69.6145 34.7674 69.8789C34.7873 70.1433 34.9113 70.3889 35.1121 70.562C39.2561 74.126 44.5521 76.088 50.0261 76.088C62.6461 76.088 72.9121 65.822 72.9121 53.202C72.9121 47.702 70.9601 42.648 67.7161 38.696Z" fill="#0B301A"/>
</svg>

<svg xmlns="http://www.w3.org/2000/svg" width="100" height="100" fill="none" viewBox="0 0 100 100"><path fill="#0b301a" d="M51.026 53V38.4a1 1 0 0 0-2 0V53a1 1 0 0 0 2 0"/><path fill="#0b301a" d="m67.716 38.696 3.044-2.71a1 1 0 1 0-1.33-1.494l-3.05 2.716c-3.94-4.028-9.35-6.61-15.354-6.87v-4.68h2.53a1 1 0 0 0 0-2h-7.06a1 1 0 0 0 0 2h2.53v4.68c-12.158.526-21.886 10.578-21.886 22.864a22.93 22.93 0 0 0 5.066 14.36 1 1 0 1 0 1.556-1.256 20.94 20.94 0 0 1-4.622-13.104c0-11.516 9.37-20.886 20.886-20.886s20.886 9.37 20.886 20.886-9.37 20.886-20.886 20.886c-4.994 0-9.828-1.79-13.61-5.042a1 1 0 0 0-1.304 1.516 22.88 22.88 0 0 0 14.914 5.526c12.62 0 22.886-10.266 22.886-22.886 0-5.5-1.952-10.554-5.196-14.506"/></svg>
